svg/Mapbox-maki/campsite-24.svg

<?xml version="1.0" encoding="UTF-8" standalone="no"?>
<!-- Created with Inkscape (http://www.inkscape.org/) -->

<svg
   xmlns:dc="http://purl.org/dc/elements/1.1/"
   xmlns:cc="http://creativecommons.org/ns#"
   xmlns:rdf="http://www.w3.org/1999/02/22-rdf-syntax-ns#"
   xmlns:svg="http://www.w3.org/2000/svg"
   xmlns="http://www.w3.org/2000/svg"
   xmlns:sodipodi="http://sodipodi.sourceforge.net/DTD/sodipodi-0.dtd"
   xmlns:inkscape="http://www.inkscape.org/namespaces/inkscape"
   width="24"
   height="24"
   id="svg4460"
   version="1.1"
   inkscape:version="0.48.2 r9819"
   sodipodi:docname="garden-24.svg">
  <defs
     id="defs4462" />
  <sodipodi:namedview
     id="base"
     pagecolor="#ffffff"
     bordercolor="#666666"
     borderopacity="1.0"
     inkscape:pageopacity="0.0"
     inkscape:pageshadow="2"
     inkscape:zoom="11.313708"
     inkscape:cx="15.622727"
     inkscape:cy="6.9146856"
     inkscape:document-units="px"
     inkscape:current-layer="layer1"
     showgrid="true"
     showguides="true"
     inkscape:guide-bbox="true"
     inkscape:window-width="1220"
     inkscape:window-height="833"
     inkscape:window-x="56"
     inkscape:window-y="20"
     inkscape:window-maximized="0">
    <inkscape:grid
       type="xygrid"
       id="grid4468"
       empspacing="5"
       visible="true"
       enabled="true"
       snapvisiblegridlinesonly="true" />
    <sodipodi:guide
       orientation="1,0"
       position="0,20"
       id="guide4470" />
    <sodipodi:guide
       orientation="0,1"
       position="4,24"
       id="guide4472" />
    <sodipodi:guide
       orientation="1,0"
       position="24,13"
       id="guide4474" />
    <sodipodi:guide
       orientation="0,1"
       position="15,0"
       id="guide4476" />
    <sodipodi:guide
       orientation="1,0"
       position="23,20"
       id="guide4478" />
    <sodipodi:guide
       orientation="0,1"
       position="20,23"
       id="guide4480" />
    <sodipodi:guide
       orientation="1,0"
       position="2,5"
       id="guide4482" />
    <sodipodi:guide
       orientation="0,1"
       position="7,2"
       id="guide4484" />
    <sodipodi:guide
       orientation="1,0"
       position="13,16"
       id="guide4486" />
    <sodipodi:guide
       orientation="0,1"
       position="16,13"
       id="guide4490" />
  </sodipodi:namedview>
  <metadata
     id="metadata4465">
    <rdf:RDF>
      <cc:Work
         rdf:about="">
        <dc:format>image/svg+xml</dc:format>
        <dc:type
           rdf:resource="http://purl.org/dc/dcmitype/StillImage" />
        <dc:title></dc:title>
      </cc:Work>
    </rdf:RDF>
  </metadata>
  <g
     inkscape:label="Layer 1"
     inkscape:groupmode="layer"
     id="layer1"
     transform="translate(0,-1028.3622)">
    <g
       transform="translate(-162,-190)"
       style="display:inline"
       id="campsite-24"
       inkscape:label="campsite-24"
       inkscape:export-xdpi="89.996864"
       inkscape:export-ydpi="89.996864">
      <g
         id="g11443"
         style="display:inline"
         transform="translate(162,213)">
        <path
           sodipodi:nodetypes="cccsssccsssccccccc"
           id="path11424"
           transform="translate(0,1004.3622)"
           d="M 12.5,5 C 12,4.9999 11.773906,5.2394 11.625,5.5 L 5.40625,17 4.0625,17 C 3.4759168,17 3,17.446005 3,18 c 0,0.553995 0.4759168,1 1.0625,1 L 6,19 l 13,0 1.9375,0 C 21.524083,19 22,18.553995 22,18 22,17.446005 21.524083,17 20.9375,17 L 19.59375,17 13.375,5.5 C 13.226094,5.2394 13,4.9999 12.5,5 z m 0,5 3.5,7 -7,0 z"
           style="font-size:medium;font-style:normal;font-variant:normal;font-weight:normal;font-stretch:normal;text-indent:0;text-align:start;text-decoration:none;line-height:normal;letter-spacing:normal;word-spacing:normal;text-transform:none;direction:ltr;block-progression:tb;writing-mode:lr-tb;text-anchor:start;baseline-shift:baseline;opacity:0.3;color:#000000;fill:none;stroke:#ffffff;stroke-width:2;stroke-linecap:round;stroke-linejoin:round;stroke-miterlimit:4;stroke-opacity:1;stroke-dasharray:none;stroke-dashoffset:0;marker:none;visibility:visible;display:inline;overflow:visible;enable-background:accumulate;font-family:Sans;-inkscape-font-specification:Sans"
           inkscape:connector-curvature="0" />
        <path
           sodipodi:nodetypes="cccsssccsssccccccc"
           style="font-size:medium;font-style:normal;font-variant:normal;font-weight:normal;font-stretch:normal;text-indent:0;text-align:start;text-decoration:none;line-height:normal;letter-spacing:normal;word-spacing:normal;text-transform:none;direction:ltr;block-progression:tb;writing-mode:lr-tb;text-anchor:start;baseline-shift:baseline;color:#000000;fill:#444444;fill-opacity:1;fill-rule:nonzero;stroke:none;stroke-width:2;marker:none;visibility:visible;display:inline;overflow:visible;enable-background:accumulate;font-family:Sans;-inkscape-font-specification:Sans"
           d="M 12.5,5 C 12,4.9999 11.773906,5.2394 11.625,5.5 L 5.40625,17 4.0625,17 C 3.4759168,17 3,17.446005 3,18 c 0,0.553995 0.4759168,1 1.0625,1 L 6,19 l 13,0 1.9375,0 C 21.524083,19 22,18.553995 22,18 22,17.446005 21.524083,17 20.9375,17 L 19.59375,17 13.375,5.5 C 13.226094,5.2394 13,4.9999 12.5,5 z m 0,5 3.5,7 -7,0 z"
           transform="translate(0,1004.3622)"
           id="path11349-0"
           inkscape:connector-curvature="0" />
      </g>
      <rect
         style="opacity:0.5;color:#000000;fill:none;stroke:none;stroke-width:2;marker:none;visibility:visible;display:inline;overflow:visible;enable-background:accumulate"
         id="rect22288"
         width="24"
         height="24.000017"
         x="162"
         y="1218.3622" />
    </g>
  </g>
</svg>

<svg xmlns="http://www.w3.org/2000/svg" viewBox="0 0 24 24"><g color="#000" transform="translate(0-.998)"><path d="m12.5 5c-.5 0-.726.239-.875.5l-6.219 11.5h-1.344c-.587 0-1.063.446-1.063 1 0 .554.476 1 1.063 1h1.938 13 1.938c.587 0 1.063-.446 1.063-1 0-.554-.476-1-1.063-1h-1.344l-6.219-11.5c-.149-.261-.375-.5-.875-.5zm0 5l3.5 7h-7z" opacity=".3" stroke-width="2" stroke-linecap="round" fill="none" stroke-linejoin="round" stroke="#fff"/><path d="m12.5 5c-.5 0-.726.239-.875.5l-6.219 11.5h-1.344c-.587 0-1.063.446-1.063 1 0 .554.476 1 1.063 1h1.938 13 1.938c.587 0 1.063-.446 1.063-1 0-.554-.476-1-1.063-1h-1.344l-6.219-11.5c-.149-.261-.375-.5-.875-.5m0 5l3.5 7h-7z" fill="#444"/></g></svg>
